assets/images/new-web/elite/pillar-3.svg

<svg xmlns="http://www.w3.org/2000/svg" width="43" height="34" viewBox="0 0 43 34">
    <path fill="#5D80A0" fill-rule="evenodd" d="M37.928 18.666c.088-.544.154-1.088.154-1.666 0-.578-.066-1.122-.154-1.666l4.663-2.805c.42-.255.53-.714.266-1.088l-4.421-5.882c-.265-.374-.862-.51-1.348-.374l-5.504 1.7c-1.15-.68-2.387-1.241-3.736-1.666l-.84-4.505C26.943.306 26.479 0 25.927 0h-8.842c-.552 0-1.016.306-1.083.714l-.84 4.505c-1.348.425-2.586 1.003-3.735 1.666l-5.504-1.7c-.508-.153-1.083 0-1.348.374l-4.42 5.882c-.288.374-.155.833.264 1.088l4.664 2.805c-.088.544-.154 1.105-.154 1.666 0 .561.066 1.122.154 1.666L.418 21.471c-.42.255-.53.714-.265 1.088l4.42 5.882c.266.374.863.51 1.35.374l5.503-1.7c1.15.68 2.387 1.241 3.735 1.666l.84 4.505c.067.408.53.714 1.083.714h8.842c.552 0 1.016-.306 1.083-.714l.84-4.505c1.348-.425 2.586-1.003 3.735-1.666l5.504 1.7c.508.153 1.083 0 1.348-.374l4.42-5.882c.266-.374.155-.833-.265-1.088l-4.663-2.805zM22.5 23c-4.136 0-7.5-2.691-7.5-6s3.364-6 7.5-6 7.5 2.691 7.5 6-3.364 6-7.5 6z"/>
</svg>

<?xml version="1.0" encoding="UTF-8"?>
<svg width="43px" height="34px" viewBox="0 0 43 34" version="1.1" xmlns="http://www.w3.org/2000/svg" xmlns:xlink="http://www.w3.org/1999/xlink">
    <!-- Generator: Sketch 63.1 (92452) - https://sketch.com -->
    <title>mask</title>
    <desc>Created with Sketch.</desc>
    <g id="Page-1" stroke="none" stroke-width="1" fill="none" fill-rule="evenodd">
        <g id="Artboard" transform="translate(-350.000000, -106.000000)" fill="#FFFFFF">
            <g id="mask" transform="translate(350.000000, 106.000000)">
                <path d="M37.928,18.666 C38.016,18.122 38.082,17.578 38.082,17 C38.082,16.422 38.016,15.878 37.928,15.334 L42.591,12.529 C43.011,12.274 43.121,11.815 42.857,11.441 L38.436,5.559 C38.171,5.185 37.574,5.049 37.088,5.185 L31.584,6.885 C30.434,6.205 29.197,5.644 27.848,5.219 L27.008,0.714 C26.943,0.306 26.479,0 25.927,0 L17.085,0 C16.533,0 16.069,0.306 16.002,0.714 L15.162,5.219 C13.814,5.644 12.576,6.222 11.427,6.885 L5.923,5.185 C5.415,5.032 4.84,5.185 4.575,5.559 L0.155,11.441 C-0.133,11.815 3.80251386e-15,12.274 0.419,12.529 L5.083,15.334 C4.995,15.878 4.929,16.439 4.929,17 C4.929,17.561 4.995,18.122 5.083,18.666 L0.418,21.471 C-0.002,21.726 -0.112,22.185 0.153,22.559 L4.573,28.441 C4.839,28.815 5.436,28.951 5.923,28.815 L11.426,27.115 C12.576,27.795 13.813,28.356 15.161,28.781 L16.001,33.286 C16.068,33.694 16.531,34 17.084,34 L25.926,34 C26.478,34 26.942,33.694 27.009,33.286 L27.849,28.781 C29.197,28.356 30.435,27.778 31.584,27.115 L37.088,28.815 C37.596,28.968 38.171,28.815 38.436,28.441 L42.856,22.559 C43.122,22.185 43.011,21.726 42.591,21.471 L37.928,18.666 Z M22.5,23 C18.364,23 15,20.309 15,17 C15,13.691 18.364,11 22.5,11 C26.636,11 30,13.691 30,17 C30,20.309 26.636,23 22.5,23 Z" id="Shape"></path>
            </g>
        </g>
    </g>
</svg>
